src/pos-icons/collapse-all.svg

<svg height="24" viewBox="0 0 24 24" width="24" xmlns="http://www.w3.org/2000/svg"><path d="m14 4h-10v10h-2v-10a2 2 0 0 1 2-2h10zm4 2h-10a2 2 0 0 0 -2 2v10h2v-10h10zm4 6v8a2 2 0 0 1 -2 2h-8a2 2 0 0 1 -2-2v-8a2 2 0 0 1 2-2h8a2 2 0 0 1 2 2m-2 3h-8v2h8z"/></svg>

<?xml version="1.0" encoding="UTF-8"?><!DOCTYPE svg PUBLIC "-//W3C//DTD SVG 1.1//EN" "http://www.w3.org/Graphics/SVG/1.1/DTD/svg11.dtd"><svg xmlns="http://www.w3.org/2000/svg" xmlns:xlink="http://www.w3.org/1999/xlink" version="1.1" id="mdi-collapse-all" width="24" height="24" viewBox="0 0 24 24"><path d="M14,4H4V14H2V4A2,2 0 0,1 4,2H14V4M18,6H8A2,2 0 0,0 6,8V18H8V8H18V6M22,12V20A2,2 0 0,1 20,22H12A2,2 0 0,1 10,20V12A2,2 0 0,1 12,10H20A2,2 0 0,1 22,12M20,15H12V17H20V15Z" /></svg>
